svg/300/sharp/settings_input_component-fill.svg

<svg xmlns="http://www.w3.org/2000/svg" width="48" height="48" viewBox="0 -960 960 960"><path d="M140.309-60.002v-176.072l-80.308-79.367v-115.176H266v114.692L185.693-236.4v176.399h-45.384Zm316.999 0v-176.072l-80.307-79.367v-115.176h205.998v114.692L502.692-236.4v176.399h-45.384Zm316.999 0v-176.072L694-315.441v-115.176h205.999v114.692L819.691-236.4v176.399h-45.384ZM60.001-476v-237.077h80.308v-186.922h45.384v186.922H266V-476H60.001Zm317 0v-237.077h80.307v-186.922h45.384v186.922h80.307V-476H377.001ZM694-476v-237.077h80.307v-186.922h45.384v186.922h80.308V-476H694Z"/></svg>

<svg xmlns="http://www.w3.org/2000/svg" width="48" height="48" viewBox="0 -960 960 960"><path d="M140.31-60v-176.07L60-315.44v-115.18h206v114.7l-80.31 79.52V-60h-45.38Zm317 0v-176.07L377-315.44v-115.18h206v114.7l-80.31 79.52V-60h-45.38Zm317 0v-176.07L694-315.44v-115.18h206v114.7l-80.31 79.52V-60h-45.38ZM60-476v-237.08h80.31V-900h45.38v186.92H266V-476H60Zm317 0v-237.08h80.31V-900h45.38v186.92H583V-476H377Zm317 0v-237.08h80.31V-900h45.38v186.92H900V-476H694Z"/></svg>
